images/bg.svg

<!DOCTYPE svg PUBLIC "-//W3C//DTD SVG 1.1//EN" "http://www.w3.org/Graphics/SVG/1.1/DTD/svg11.dtd">
<!-- Uploaded to: SVG Repo, www.svgrepo.com, Transformed by: SVG Repo Mixer Tools -->
<svg height="800px" width="800px" version="1.1" id="_x32_" xmlns="http://www.w3.org/2000/svg" xmlns:xlink="http://www.w3.org/1999/xlink" viewBox="-256 -256 1024.00 1024.00" xml:space="preserve" fill="#ec9c9c" stroke="#ec9c9c" transform="rotate(0)" stroke-width="0.00512">
<g id="SVGRepo_bgCarrier" stroke-width="0"/>
<g id="SVGRepo_tracerCarrier" stroke-linecap="round" stroke-linejoin="round" stroke="#CCCCCC" stroke-width="24.576"/>
<g id="SVGRepo_iconCarrier"> <style type="text/css"> .st0{fill:#ec9c9c;} </style> <g> <path class="st0" d="M256,0C114.81,0.021,0.022,114.81,0,256c0.022,141.19,114.81,255.979,256,256 c141.19-0.021,255.979-114.81,256-256C511.979,114.81,397.184,0.021,256,0z M427.261,208.528c6.641,0,12.021,5.38,12.021,12.014 c0,6.648-5.38,12.028-12.021,12.028c-6.634,0-12.015-5.38-12.015-12.028C415.246,213.908,420.627,208.528,427.261,208.528z M398.416,113.422c8.718,0,15.781,7.064,15.781,15.768c0,8.726-7.064,15.789-15.781,15.789c-8.711,0-15.768-7.063-15.768-15.789 C382.648,120.486,389.705,113.422,398.416,113.422z M304.676,69.106c5.31,0,9.613,4.303,9.613,9.612c0,5.317-4.302,9.62-9.613,9.62 c-5.31,0-9.619-4.303-9.619-9.62C295.057,73.408,299.366,69.106,304.676,69.106z M354.373,229.599c0,51-44.45,92.345-99.275,92.345 c-54.824,0-99.274-41.345-99.274-92.345c0-51.008,44.451-92.352,99.274-92.352C309.923,137.246,354.373,178.591,354.373,229.599z M357.556,357.549c0,6.648-5.38,12.028-12.02,12.028c-6.634,0-12.015-5.38-12.015-12.028c0-6.634,5.38-12.014,12.015-12.014 C352.177,345.535,357.556,350.916,357.556,357.549z M273.43,384c0,5.317-4.31,9.62-9.62,9.62c-5.31,0-9.613-4.303-9.613-9.62 c0-5.31,4.303-9.613,9.613-9.613C269.12,374.387,273.43,378.69,273.43,384z M172.472,340.725c0,6.648-5.38,12.028-12.021,12.028 c-6.641,0-12.021-5.38-12.021-12.028c0-6.634,5.38-12.014,12.021-12.014C167.092,328.711,172.472,334.092,172.472,340.725z M218.141,81.127c6.641,0,12.021,5.38,12.021,12.014c0,6.648-5.38,12.028-12.021,12.028c-6.641,0-12.021-5.38-12.021-12.028 C206.12,86.507,211.5,81.127,218.141,81.127z M65.064,176.282c17.056-51.134,56.014-92.155,105.803-112 c5.549-2.212,11.845,0.492,14.056,6.042c2.211,5.549-0.5,11.844-6.05,14.056c-43.859,17.464-78.288,53.718-93.288,98.746 c-1.887,5.67-8.014,8.733-13.684,6.838C66.233,188.078,63.169,181.95,65.064,176.282z M102.908,291.45 c0,8.726-7.063,15.789-15.781,15.789c-8.711,0-15.768-7.063-15.768-15.789c0-8.704,7.057-15.767,15.768-15.767 C95.846,275.683,102.908,282.746,102.908,291.45z M256,479.549c-93.711,0-173.908-57.69-207.141-139.464 c9.676,9.106,21.726,15.718,34.613,16.711c45.514,3.486,26.542,64.472,79.641,57.5c74.739-9.81,51.204,27.88,92.922,27.88 c41.719,0,17.662-33.415,92.923-27.88c47.401,3.486,22.753-59.246,79.64-57.5c11.127,0.338,21.606-4.373,30.486-11.62 c2.704-4.612,5.176-9.359,7.528-14.176C435.782,417.564,353.141,479.549,256,479.549z"/> </g> </g>
</svg>

<?xml version="1.0" encoding="UTF-8" standalone="no"?>
<!-- Uploaded to: SVG Repo, www.svgrepo.com, Transformed by: SVG Repo Mixer Tools -->

<svg
   height="800px"
   width="800px"
   version="1.1"
   id="_x32_"
   viewBox="-256 -256 1024.00 1024.00"
   xml:space="preserve"
   fill="#ec9c9c"
   stroke="#ec9c9c"
   transform="rotate(0)"
   stroke-width="0.00512"
   sodipodi:docname="bg.svg"
   inkscape:version="1.2.2 (b0a8486541, 2022-12-01)"
   xmlns:inkscape="http://www.inkscape.org/namespaces/inkscape"
   xmlns:sodipodi="http://sodipodi.sourceforge.net/DTD/sodipodi-0.dtd"
   xmlns="http://www.w3.org/2000/svg"
   xmlns:svg="http://www.w3.org/2000/svg"><defs
   id="defs14" /><sodipodi:namedview
   id="namedview12"
   pagecolor="#ffffff"
   bordercolor="#000000"
   borderopacity="0.25"
   inkscape:showpageshadow="2"
   inkscape:pageopacity="0.0"
   inkscape:pagecheckerboard="0"
   inkscape:deskcolor="#d1d1d1"
   showgrid="false"
   inkscape:zoom="0.96875"
   inkscape:cx="389.16129"
   inkscape:cy="332.90323"
   inkscape:window-width="1920"
   inkscape:window-height="999"
   inkscape:window-x="0"
   inkscape:window-y="0"
   inkscape:window-maximized="1"
   inkscape:current-layer="_x32_" />

<g
   id="SVGRepo_iconCarrier"
   transform="translate(-511.99744,-511.99744)"> <style
   type="text/css"
   id="style4"> .st0{fill:#ec9c9c;} </style> <g
   id="g8"> <path
   class="st0"
   d="M 256,0 C 114.81,0.021 0.022,114.81 0,256 0.022,397.19 114.81,511.979 256,512 397.19,511.979 511.979,397.19 512,256 511.979,114.81 397.184,0.021 256,0 Z M 427.261,208.528 C 433.902,208.528 439.282,213.908 439.282,220.542 439.282,227.19 433.902,232.57 427.261,232.57 420.627,232.57 415.246,227.19 415.246,220.542 415.246,213.908 420.627,208.528 427.261,208.528 Z M 398.416,113.422 C 407.134,113.422 414.197,120.486 414.197,129.19 414.197,137.916 407.133,144.979 398.416,144.979 389.705,144.979 382.648,137.916 382.648,129.19 382.648,120.486 389.705,113.422 398.416,113.422 Z M 304.676,69.106 C 309.986,69.106 314.289,73.409 314.289,78.718 314.289,84.035 309.987,88.338 304.676,88.338 299.366,88.338 295.057,84.035 295.057,78.718 295.057,73.408 299.366,69.106 304.676,69.106 Z M 354.373,229.599 C 354.373,280.599 309.923,321.944 255.098,321.944 200.274,321.944 155.824,280.599 155.824,229.599 155.824,178.591 200.275,137.247 255.098,137.247 309.923,137.246 354.373,178.591 354.373,229.599 Z M 357.556,357.549 C 357.556,364.197 352.176,369.577 345.536,369.577 338.902,369.577 333.521,364.197 333.521,357.549 333.521,350.915 338.901,345.535 345.536,345.535 352.177,345.535 357.556,350.916 357.556,357.549 Z M 273.43,384 C 273.43,389.317 269.12,393.62 263.81,393.62 258.5,393.62 254.197,389.317 254.197,384 254.197,378.69 258.5,374.387 263.81,374.387 269.12,374.387 273.43,378.69 273.43,384 Z M 172.472,340.725 C 172.472,347.373 167.092,352.753 160.451,352.753 153.81,352.753 148.43,347.373 148.43,340.725 148.43,334.091 153.81,328.711 160.451,328.711 167.092,328.711 172.472,334.092 172.472,340.725 Z M 218.141,81.127 C 224.782,81.127 230.162,86.507 230.162,93.141 230.162,99.789 224.782,105.169 218.141,105.169 211.5,105.169 206.12,99.789 206.12,93.141 206.12,86.507 211.5,81.127 218.141,81.127 Z M 65.064,176.282 C 82.12,125.148 121.078,84.127 170.867,64.282 176.416,62.07 182.712,64.774 184.923,70.324 187.134,75.873 184.423,82.168 178.873,84.38 135.014,101.844 100.585,138.098 85.585,183.126 83.698,188.796 77.571,191.859 71.901,189.964 66.233,188.078 63.169,181.95 65.064,176.282 Z M 102.908,291.45 C 102.908,300.176 95.845,307.239 87.127,307.239 78.416,307.239 71.359,300.176 71.359,291.45 71.359,282.746 78.416,275.683 87.127,275.683 95.846,275.683 102.908,282.746 102.908,291.45 Z M 256,479.549 C 162.289,479.549 82.092,421.859 48.859,340.085 58.535,349.191 70.585,355.803 83.472,356.796 128.986,360.282 110.014,421.268 163.113,414.296 237.852,404.486 214.317,442.176 256.035,442.176 297.754,442.176 273.697,408.761 348.958,414.296 396.359,417.782 371.711,355.05 428.598,356.796 439.725,357.134 450.204,352.423 459.084,345.176 461.788,340.564 464.26,335.817 466.612,331 435.782,417.564 353.141,479.549 256,479.549 Z"
   id="path6" /> </g> </g><g
   id="SVGRepo_iconCarrier-3"
   transform="translate(512.00256,-511.99744)"> <style
   type="text/css"
   id="style4-6"> .st0{fill:#ec9c9c;} </style> <g
   id="g8-7"> <path
   class="st0"
   d="M 256,0 C 114.81,0.021 0.022,114.81 0,256 0.022,397.19 114.81,511.979 256,512 397.19,511.979 511.979,397.19 512,256 511.979,114.81 397.184,0.021 256,0 Z M 427.261,208.528 C 433.902,208.528 439.282,213.908 439.282,220.542 439.282,227.19 433.902,232.57 427.261,232.57 420.627,232.57 415.246,227.19 415.246,220.542 415.246,213.908 420.627,208.528 427.261,208.528 Z M 398.416,113.422 C 407.134,113.422 414.197,120.486 414.197,129.19 414.197,137.916 407.133,144.979 398.416,144.979 389.705,144.979 382.648,137.916 382.648,129.19 382.648,120.486 389.705,113.422 398.416,113.422 Z M 304.676,69.106 C 309.986,69.106 314.289,73.409 314.289,78.718 314.289,84.035 309.987,88.338 304.676,88.338 299.366,88.338 295.057,84.035 295.057,78.718 295.057,73.408 299.366,69.106 304.676,69.106 Z M 354.373,229.599 C 354.373,280.599 309.923,321.944 255.098,321.944 200.274,321.944 155.824,280.599 155.824,229.599 155.824,178.591 200.275,137.247 255.098,137.247 309.923,137.246 354.373,178.591 354.373,229.599 Z M 357.556,357.549 C 357.556,364.197 352.176,369.577 345.536,369.577 338.902,369.577 333.521,364.197 333.521,357.549 333.521,350.915 338.901,345.535 345.536,345.535 352.177,345.535 357.556,350.916 357.556,357.549 Z M 273.43,384 C 273.43,389.317 269.12,393.62 263.81,393.62 258.5,393.62 254.197,389.317 254.197,384 254.197,378.69 258.5,374.387 263.81,374.387 269.12,374.387 273.43,378.69 273.43,384 Z M 172.472,340.725 C 172.472,347.373 167.092,352.753 160.451,352.753 153.81,352.753 148.43,347.373 148.43,340.725 148.43,334.091 153.81,328.711 160.451,328.711 167.092,328.711 172.472,334.092 172.472,340.725 Z M 218.141,81.127 C 224.782,81.127 230.162,86.507 230.162,93.141 230.162,99.789 224.782,105.169 218.141,105.169 211.5,105.169 206.12,99.789 206.12,93.141 206.12,86.507 211.5,81.127 218.141,81.127 Z M 65.064,176.282 C 82.12,125.148 121.078,84.127 170.867,64.282 176.416,62.07 182.712,64.774 184.923,70.324 187.134,75.873 184.423,82.168 178.873,84.38 135.014,101.844 100.585,138.098 85.585,183.126 83.698,188.796 77.571,191.859 71.901,189.964 66.233,188.078 63.169,181.95 65.064,176.282 Z M 102.908,291.45 C 102.908,300.176 95.845,307.239 87.127,307.239 78.416,307.239 71.359,300.176 71.359,291.45 71.359,282.746 78.416,275.683 87.127,275.683 95.846,275.683 102.908,282.746 102.908,291.45 Z M 256,479.549 C 162.289,479.549 82.092,421.859 48.859,340.085 58.535,349.191 70.585,355.803 83.472,356.796 128.986,360.282 110.014,421.268 163.113,414.296 237.852,404.486 214.317,442.176 256.035,442.176 297.754,442.176 273.697,408.761 348.958,414.296 396.359,417.782 371.711,355.05 428.598,356.796 439.725,357.134 450.204,352.423 459.084,345.176 461.788,340.564 464.26,335.817 466.612,331 435.782,417.564 353.141,479.549 256,479.549 Z"
   id="path6-5"
   style="fill:#ec9c9c" /> </g> </g><g
   id="SVGRepo_iconCarrier-3-0"
   transform="translate(0.00256,0.00256)"> <style
   type="text/css"
   id="style4-6-9"> .st0{fill:#ec9c9c;} </style> <g
   id="g8-7-3"> <path
   class="st0"
   d="M 256,0 C 114.81,0.021 0.022,114.81 0,256 0.022,397.19 114.81,511.979 256,512 397.19,511.979 511.979,397.19 512,256 511.979,114.81 397.184,0.021 256,0 Z M 427.261,208.528 C 433.902,208.528 439.282,213.908 439.282,220.542 439.282,227.19 433.902,232.57 427.261,232.57 420.627,232.57 415.246,227.19 415.246,220.542 415.246,213.908 420.627,208.528 427.261,208.528 Z M 398.416,113.422 C 407.134,113.422 414.197,120.486 414.197,129.19 414.197,137.916 407.133,144.979 398.416,144.979 389.705,144.979 382.648,137.916 382.648,129.19 382.648,120.486 389.705,113.422 398.416,113.422 Z M 304.676,69.106 C 309.986,69.106 314.289,73.409 314.289,78.718 314.289,84.035 309.987,88.338 304.676,88.338 299.366,88.338 295.057,84.035 295.057,78.718 295.057,73.408 299.366,69.106 304.676,69.106 Z M 354.373,229.599 C 354.373,280.599 309.923,321.944 255.098,321.944 200.274,321.944 155.824,280.599 155.824,229.599 155.824,178.591 200.275,137.247 255.098,137.247 309.923,137.246 354.373,178.591 354.373,229.599 Z M 357.556,357.549 C 357.556,364.197 352.176,369.577 345.536,369.577 338.902,369.577 333.521,364.197 333.521,357.549 333.521,350.915 338.901,345.535 345.536,345.535 352.177,345.535 357.556,350.916 357.556,357.549 Z M 273.43,384 C 273.43,389.317 269.12,393.62 263.81,393.62 258.5,393.62 254.197,389.317 254.197,384 254.197,378.69 258.5,374.387 263.81,374.387 269.12,374.387 273.43,378.69 273.43,384 Z M 172.472,340.725 C 172.472,347.373 167.092,352.753 160.451,352.753 153.81,352.753 148.43,347.373 148.43,340.725 148.43,334.091 153.81,328.711 160.451,328.711 167.092,328.711 172.472,334.092 172.472,340.725 Z M 218.141,81.127 C 224.782,81.127 230.162,86.507 230.162,93.141 230.162,99.789 224.782,105.169 218.141,105.169 211.5,105.169 206.12,99.789 206.12,93.141 206.12,86.507 211.5,81.127 218.141,81.127 Z M 65.064,176.282 C 82.12,125.148 121.078,84.127 170.867,64.282 176.416,62.07 182.712,64.774 184.923,70.324 187.134,75.873 184.423,82.168 178.873,84.38 135.014,101.844 100.585,138.098 85.585,183.126 83.698,188.796 77.571,191.859 71.901,189.964 66.233,188.078 63.169,181.95 65.064,176.282 Z M 102.908,291.45 C 102.908,300.176 95.845,307.239 87.127,307.239 78.416,307.239 71.359,300.176 71.359,291.45 71.359,282.746 78.416,275.683 87.127,275.683 95.846,275.683 102.908,282.746 102.908,291.45 Z M 256,479.549 C 162.289,479.549 82.092,421.859 48.859,340.085 58.535,349.191 70.585,355.803 83.472,356.796 128.986,360.282 110.014,421.268 163.113,414.296 237.852,404.486 214.317,442.176 256.035,442.176 297.754,442.176 273.697,408.761 348.958,414.296 396.359,417.782 371.711,355.05 428.598,356.796 439.725,357.134 450.204,352.423 459.084,345.176 461.788,340.564 464.26,335.817 466.612,331 435.782,417.564 353.141,479.549 256,479.549 Z"
   id="path6-5-6"
   style="fill:#ec9c9c" /> </g> </g><g
   id="SVGRepo_iconCarrier-3-3"
   transform="translate(-511.99744,512.00256)"> <style
   type="text/css"
   id="style4-6-5"> .st0{fill:#ec9c9c;} </style> <g
   id="g8-7-6"> <path
   class="st0"
   d="M 256,0 C 114.81,0.021 0.022,114.81 0,256 0.022,397.19 114.81,511.979 256,512 397.19,511.979 511.979,397.19 512,256 511.979,114.81 397.184,0.021 256,0 Z M 427.261,208.528 C 433.902,208.528 439.282,213.908 439.282,220.542 439.282,227.19 433.902,232.57 427.261,232.57 420.627,232.57 415.246,227.19 415.246,220.542 415.246,213.908 420.627,208.528 427.261,208.528 Z M 398.416,113.422 C 407.134,113.422 414.197,120.486 414.197,129.19 414.197,137.916 407.133,144.979 398.416,144.979 389.705,144.979 382.648,137.916 382.648,129.19 382.648,120.486 389.705,113.422 398.416,113.422 Z M 304.676,69.106 C 309.986,69.106 314.289,73.409 314.289,78.718 314.289,84.035 309.987,88.338 304.676,88.338 299.366,88.338 295.057,84.035 295.057,78.718 295.057,73.408 299.366,69.106 304.676,69.106 Z M 354.373,229.599 C 354.373,280.599 309.923,321.944 255.098,321.944 200.274,321.944 155.824,280.599 155.824,229.599 155.824,178.591 200.275,137.247 255.098,137.247 309.923,137.246 354.373,178.591 354.373,229.599 Z M 357.556,357.549 C 357.556,364.197 352.176,369.577 345.536,369.577 338.902,369.577 333.521,364.197 333.521,357.549 333.521,350.915 338.901,345.535 345.536,345.535 352.177,345.535 357.556,350.916 357.556,357.549 Z M 273.43,384 C 273.43,389.317 269.12,393.62 263.81,393.62 258.5,393.62 254.197,389.317 254.197,384 254.197,378.69 258.5,374.387 263.81,374.387 269.12,374.387 273.43,378.69 273.43,384 Z M 172.472,340.725 C 172.472,347.373 167.092,352.753 160.451,352.753 153.81,352.753 148.43,347.373 148.43,340.725 148.43,334.091 153.81,328.711 160.451,328.711 167.092,328.711 172.472,334.092 172.472,340.725 Z M 218.141,81.127 C 224.782,81.127 230.162,86.507 230.162,93.141 230.162,99.789 224.782,105.169 218.141,105.169 211.5,105.169 206.12,99.789 206.12,93.141 206.12,86.507 211.5,81.127 218.141,81.127 Z M 65.064,176.282 C 82.12,125.148 121.078,84.127 170.867,64.282 176.416,62.07 182.712,64.774 184.923,70.324 187.134,75.873 184.423,82.168 178.873,84.38 135.014,101.844 100.585,138.098 85.585,183.126 83.698,188.796 77.571,191.859 71.901,189.964 66.233,188.078 63.169,181.95 65.064,176.282 Z M 102.908,291.45 C 102.908,300.176 95.845,307.239 87.127,307.239 78.416,307.239 71.359,300.176 71.359,291.45 71.359,282.746 78.416,275.683 87.127,275.683 95.846,275.683 102.908,282.746 102.908,291.45 Z M 256,479.549 C 162.289,479.549 82.092,421.859 48.859,340.085 58.535,349.191 70.585,355.803 83.472,356.796 128.986,360.282 110.014,421.268 163.113,414.296 237.852,404.486 214.317,442.176 256.035,442.176 297.754,442.176 273.697,408.761 348.958,414.296 396.359,417.782 371.711,355.05 428.598,356.796 439.725,357.134 450.204,352.423 459.084,345.176 461.788,340.564 464.26,335.817 466.612,331 435.782,417.564 353.141,479.549 256,479.549 Z"
   id="path6-5-2"
   style="fill:#ec9c9c" /> </g> </g><g
   id="SVGRepo_iconCarrier-3-3-9"
   transform="translate(512.00256,512.00256)"> <style
   type="text/css"
   id="style4-6-5-1"> .st0{fill:#ec9c9c;} </style> <g
   id="g8-7-6-2"> <path
   class="st0"
   d="M 256,0 C 114.81,0.021 0.022,114.81 0,256 0.022,397.19 114.81,511.979 256,512 397.19,511.979 511.979,397.19 512,256 511.979,114.81 397.184,0.021 256,0 Z M 427.261,208.528 C 433.902,208.528 439.282,213.908 439.282,220.542 439.282,227.19 433.902,232.57 427.261,232.57 420.627,232.57 415.246,227.19 415.246,220.542 415.246,213.908 420.627,208.528 427.261,208.528 Z M 398.416,113.422 C 407.134,113.422 414.197,120.486 414.197,129.19 414.197,137.916 407.133,144.979 398.416,144.979 389.705,144.979 382.648,137.916 382.648,129.19 382.648,120.486 389.705,113.422 398.416,113.422 Z M 304.676,69.106 C 309.986,69.106 314.289,73.409 314.289,78.718 314.289,84.035 309.987,88.338 304.676,88.338 299.366,88.338 295.057,84.035 295.057,78.718 295.057,73.408 299.366,69.106 304.676,69.106 Z M 354.373,229.599 C 354.373,280.599 309.923,321.944 255.098,321.944 200.274,321.944 155.824,280.599 155.824,229.599 155.824,178.591 200.275,137.247 255.098,137.247 309.923,137.246 354.373,178.591 354.373,229.599 Z M 357.556,357.549 C 357.556,364.197 352.176,369.577 345.536,369.577 338.902,369.577 333.521,364.197 333.521,357.549 333.521,350.915 338.901,345.535 345.536,345.535 352.177,345.535 357.556,350.916 357.556,357.549 Z M 273.43,384 C 273.43,389.317 269.12,393.62 263.81,393.62 258.5,393.62 254.197,389.317 254.197,384 254.197,378.69 258.5,374.387 263.81,374.387 269.12,374.387 273.43,378.69 273.43,384 Z M 172.472,340.725 C 172.472,347.373 167.092,352.753 160.451,352.753 153.81,352.753 148.43,347.373 148.43,340.725 148.43,334.091 153.81,328.711 160.451,328.711 167.092,328.711 172.472,334.092 172.472,340.725 Z M 218.141,81.127 C 224.782,81.127 230.162,86.507 230.162,93.141 230.162,99.789 224.782,105.169 218.141,105.169 211.5,105.169 206.12,99.789 206.12,93.141 206.12,86.507 211.5,81.127 218.141,81.127 Z M 65.064,176.282 C 82.12,125.148 121.078,84.127 170.867,64.282 176.416,62.07 182.712,64.774 184.923,70.324 187.134,75.873 184.423,82.168 178.873,84.38 135.014,101.844 100.585,138.098 85.585,183.126 83.698,188.796 77.571,191.859 71.901,189.964 66.233,188.078 63.169,181.95 65.064,176.282 Z M 102.908,291.45 C 102.908,300.176 95.845,307.239 87.127,307.239 78.416,307.239 71.359,300.176 71.359,291.45 71.359,282.746 78.416,275.683 87.127,275.683 95.846,275.683 102.908,282.746 102.908,291.45 Z M 256,479.549 C 162.289,479.549 82.092,421.859 48.859,340.085 58.535,349.191 70.585,355.803 83.472,356.796 128.986,360.282 110.014,421.268 163.113,414.296 237.852,404.486 214.317,442.176 256.035,442.176 297.754,442.176 273.697,408.761 348.958,414.296 396.359,417.782 371.711,355.05 428.598,356.796 439.725,357.134 450.204,352.423 459.084,345.176 461.788,340.564 464.26,335.817 466.612,331 435.782,417.564 353.141,479.549 256,479.549 Z"
   id="path6-5-2-7"
   style="fill:#ec9c9c" /> </g> </g><g
   id="SVGRepo_bgCarrier"
   stroke-width="0" />

<g
   id="SVGRepo_tracerCarrier"
   stroke-linecap="round"
   stroke-linejoin="round"
   stroke="#CCCCCC"
   stroke-width="24.576" />



</svg>
